X: 1
T: Beauty Spot, The
M: C|
L: 1/8
R: reel
Z: Dow
S: James Fagan
K: Dmix
A3G A2dB|BccG DEGE|GA (3BAG AdcA|BAGd edBG|
A3G A2dB|BccG DEGE|GA (3BAG AdcA|BAGd edd2||
eddA ed~d2|edcd efgd|e2dA edcA|GAcd edd2|
e2dA edcd|edcd efg2|fgef decd|ABcA GA (3BAG||
Variation for bar 4 is |EAGc edBG|
Variations for the last bar are |BcAB GAEG| and |ABGA EFGE|
